svgs/light/chart-bullet.svg

<svg xmlns="http://www.w3.org/2000/svg" viewBox="0 0 512 512"><!--! Font Awesome Pro 6.4.0 by @fontawesome - https://fontawesome.com License - https://fontawesome.com/license (Commercial License) Copyright 2023 Fonticons, Inc. --><path d="M272 32c8.8 0 16 7.2 16 16V64H464c26.5 0 48 21.5 48 48v64c0 26.5-21.5 48-48 48H288v16c0 8.8-7.2 16-16 16s-16-7.2-16-16V224H48c-26.5 0-48-21.5-48-48V112C0 85.5 21.5 64 48 64H256V48c0-8.8 7.2-16 16-16zM160 96v96h96V96H160zm128 0v96H464c8.8 0 16-7.2 16-16V112c0-8.8-7.2-16-16-16H288zM128 96H48c-8.8 0-16 7.2-16 16v64c0 8.8 7.2 16 16 16h80V96zM368 256c8.8 0 16 7.2 16 16v16h80c26.5 0 48 21.5 48 48v64c0 26.5-21.5 48-48 48H384v16c0 8.8-7.2 16-16 16s-16-7.2-16-16V448H48c-26.5 0-48-21.5-48-48V336c0-26.5 21.5-48 48-48H352V272c0-8.8 7.2-16 16-16zM224 416H352V320H224v96zm160-96v96h80c8.8 0 16-7.2 16-16V336c0-8.8-7.2-16-16-16H384zm-192 0H48c-8.8 0-16 7.2-16 16v64c0 8.8 7.2 16 16 16H192V320z"/></svg>

<svg xmlns="http://www.w3.org/2000/svg" viewBox="0 0 512 512"><!--! Font Awesome Pro 6.3.0 by @fontawesome - https://fontawesome.com License - https://fontawesome.com/license (Commercial License) Copyright 2023 Fonticons, Inc. --><path d="M272 32C280.8 32 288 39.16 288 48V64H464C490.5 64 512 85.49 512 112V176C512 202.5 490.5 224 464 224H288V240C288 248.8 280.8 256 272 256C263.2 256 256 248.8 256 240V224H48C21.49 224 0 202.5 0 176V112C0 85.49 21.49 64 48 64H256V48C256 39.16 263.2 32 272 32zM160 192H256V96H160V192zM288 96V192H464C472.8 192 480 184.8 480 176V112C480 103.2 472.8 96 464 96H288zM128 96H48C39.16 96 32 103.2 32 112V176C32 184.8 39.16 192 48 192H128V96zM368 256C376.8 256 384 263.2 384 272V288H464C490.5 288 512 309.5 512 336V400C512 426.5 490.5 448 464 448H384V464C384 472.8 376.8 480 368 480C359.2 480 352 472.8 352 464V448H48C21.49 448 0 426.5 0 400V336C0 309.5 21.49 288 48 288H352V272C352 263.2 359.2 256 368 256zM352 416V320H224V416H352zM384 320V416H464C472.8 416 480 408.8 480 400V336C480 327.2 472.8 320 464 320H384zM192 320H48C39.16 320 32 327.2 32 336V400C32 408.8 39.16 416 48 416H192V320z"/></svg>
